!!!OTL: 1f. Die schoene Agnina.
!!!ARE: Europa, Mitteleuropa, Deutschland, Magdeburg, Leitzkau
!!!SCT: E0001
!!!ODT: 1840
!!!TXL: @@DE
!!!YEM: Copyright 1995, estate of Helmut Schaffrath.
**kern	**text
*ICvox	*
*M2/4	*
*k[b-]	*
*F:	*
!LO:TX:a:t=Ruhig.	!
!LO:TX:a:t=Aus Leitʒkau bei Magdeburg. 1840.	!
{8c	1._Es
=1	=1
8f	wollt
8f	ein
16fL	Ni-
16eJ	-ckel-
16fL	-mann
16gJ	.
=2	=2
16aL	frei-
16b-J	.
16aL	-en
16gJ	.
8f}	gehn
{16a	[von
16a	der
=3	=3
8b-	Burg
8b-	bis
8a	an
8a	die
=4	=4
4g	See]
8r}	.
{16aL	er
16b-J	.
=5	=5
8cc	wollte
8g	Königs-
16gL	-toch-
16aJ	-ter
16gL	aus
16fJ	.
=6	=6
16eL	En-
16fJ	-ge-
16eL	-land
16dJ	.
8c}	habn,
{16c	[von
16c	der
=7	=7
8f	Burg
8f	bis
8g	an
8dd	die
=8	=8
4cc}	See,
{4b-	die
=9	=9
8a	ſchöne
8a	Ag-
16aL	-ni-
16gJ	.
8g	-na
=10	=10
4f	Fee.]
8r}	.
==	==
!!!AGN: Sage, Maerchen -, Zauber - Lied, Ballade ?
!!!ONB: ESAC (Essen Associative Code) Database: ERK1
!!!AMT: simple duple
!!!AIN: vox
!!!EED: Helmut Schaffrath
!!!EEV: 1.0
!!!GTL: Nachtklaenge der Goettersage (Zaubermaeren)
!!!URL-scan: https://rosdok.uni-rostock.de/mcrviewer/recordIdentifier/rosdok_ppn745146120/iview2/phys_0071.iview2?x=-4.404412318551749&y=76.30132198275533&scale=0.6456904138606624&rotation=0&layout=singlePageLayout&logicalDiv=log_0009
!!!EEV: 2024/21/11
*-	*-
